X:1
T:Title
L:1/8
M:4/4
I:linebreak $
K:A
V:1 treble nm="Voice"
V:1
"A" c2 ec A2 a2 |"D" fgaf dfed |"A" cdec A2 Bc |"D" dBBA"E" B3 d |"A" c2 ec A2 a2 |"D" fgaf dfed | %6
"A" cdec A2 Bc |1"E" dBGB"A" A3 d :|2"E" dBGB"A" A3 c |:"D" d2 Ad f2 ed |"A" ceAc e2 dc | %11
"E" BABc d2 cB |"A" ABcd e3 c |"D" d2 Ad f2 ed |"A" ceAc e2 dc |"E" BABc d2 cB |1"A" Aaec A3 c :|2 %17
"A" Aaec A3 d |] %18
